icons/arrow/arrow-right-2-line-from.svg

<svg width="14" height="14" viewBox="0 0 14 14" fill="none"
    xmlns="http://www.w3.org/2000/svg">
    <path d="M5 5.00371H11M11 5.00371L9 3.00371M11 5.00371L9 7.00371" stroke="red" stroke-linecap="round"/>
    <path d="M5 9H11M11 9L9 7M11 9L9 11" stroke="red" stroke-linecap="round"/>
    <path d="M3 3.00371V10.9963" stroke="green" stroke-linecap="round" stroke-linejoin="round"/>
</svg>

<svg xmlns="http://www.w3.org/2000/svg" width="14" height="14" fill="none" viewBox="0 0 14 14"><path stroke="red" stroke-linecap="round" d="M5 5.004h6m0 0-2-2m2 2-2 2M5 9h6m0 0L9 7m2 2-2 2"/><path stroke="green" stroke-linecap="round" stroke-linejoin="round" d="M3 3.004v7.992"/></svg>
